jsapp/svg-icons/link.svg

<?xml version="1.0" encoding="UTF-8"?>
<svg width="40px" height="40px" viewBox="0 0 40 40" version="1.1" xmlns="http://www.w3.org/2000/svg" xmlns:xlink="http://www.w3.org/1999/xlink">
    <!-- Generator: Sketch 50.2 (55047) - http://www.bohemiancoding.com/sketch -->
    <title>Icons/link</title>
    <desc>Created with Sketch.</desc>
    <defs>
        <path d="M11.5845,24.28375 L12.9985,22.86975 L12.2915,22.16275 C11.9015,21.77275 11.9015,21.13875 12.2915,20.74875 L20.7775,12.26375 C20.9655,12.07475 21.2165,11.97075 21.4835,11.97075 C21.7515,11.97075 22.0015,12.07475 22.1915,12.26375 L22.8975,12.97075 L24.3125,11.55675 L23.6055,10.84975 C22.4725,9.71675 20.4945,9.71675 19.3625,10.84975 L10.8775,19.33475 C9.7075,20.50475 9.7075,22.40775 10.8775,23.57675 L11.5845,24.28375 Z M29.2622,16.50745 L28.5552,15.80045 L27.1402,17.21545 L27.8482,17.92245 C28.0372,18.11145 28.1402,18.36145 28.1402,18.62945 C28.1402,18.89445 28.0362,19.14645 27.8482,19.33445 L19.3632,27.82045 C18.9852,28.19745 18.3262,28.19745 17.9482,27.82045 L17.2412,27.11345 L15.8272,28.52745 L16.5342,29.23445 C17.1012,29.80145 17.8542,30.11345 18.6552,30.11345 C19.4572,30.11345 20.2102,29.80145 20.7772,29.23445 L29.2622,20.74845 C29.8282,20.18245 30.1402,19.42845 30.1402,18.62945 C30.1402,17.82745 29.8282,17.07345 29.2622,16.50745 M22.1909,19.33505 L20.7769,17.92105 L27.8479,10.85005 L29.2619,12.26405 L22.1909,19.33505 Z M12.2915,29.23395 L10.8775,27.81995 L17.9485,20.74895 L19.3625,22.16295 L12.2915,29.23395 Z" id="path-1"></path>
    </defs>
    <g id="Icons/link" stroke="none" stroke-width="1" fill="none" fill-rule="evenodd">
        <mask id="mask-2" fill="white">
            <use xlink:href="#path-1"></use>
        </mask>
        <use id="Mask" fill="#000000" xlink:href="#path-1"></use>
    </g>
</svg>

<svg height="40" viewBox="0 0 40 40" width="40" xmlns="http://www.w3.org/2000/svg"><path d="m11.5845 24.28375 1.414-1.414-.707-.707c-.39-.39-.39-1.024 0-1.414l8.486-8.485c.188-.189.439-.293.706-.293.268 0 .518.104.708.293l.706.707 1.415-1.414-.707-.707c-1.133-1.133-3.111-1.133-4.243 0l-8.485 8.485c-1.17 1.17-1.17 3.073 0 4.242zm17.6777-7.7763-.707-.707-1.415 1.415.708.707c.189.189.292.439.292.707 0 .265-.104.517-.292.705l-8.485 8.486c-.378.377-1.037.377-1.415 0l-.707-.707-1.414 1.414.707.707c.567.567 1.32.879 2.121.879.802 0 1.555-.312 2.122-.879l8.485-8.486c.566-.566.878-1.32.878-2.119 0-.802-.312-1.556-.878-2.122m-7.0713 2.8276-1.414-1.414 7.071-7.071 1.414 1.414zm-9.8994 9.8989-1.414-1.414 7.071-7.071 1.414 1.414z" fill-rule="evenodd"/></svg>
